icons/solid/search-text.svg

<svg width="24" height="24" viewBox="0 0 24 24" fill="none" xmlns="http://www.w3.org/2000/svg">
<path fill-rule="evenodd" clip-rule="evenodd" d="M4 6C4 5.44772 4.44772 5 5 5H19C19.5523 5 20 5.44772 20 6C20 6.55228 19.5523 7 19 7H5C4.44772 7 4 6.55228 4 6ZM4 10C4 9.44772 4.44772 9 5 9H19C19.5523 9 20 9.44772 20 10C20 10.5523 19.5523 11 19 11H5C4.44772 11 4 10.5523 4 10ZM4 14C4 13.4477 4.44772 13 5 13H10C10.5523 13 11 13.4477 11 14C11 14.5523 10.5523 15 10 15H5C4.44772 15 4 14.5523 4 14ZM4 18C4 17.4477 4.44772 17 5 17H10C10.5523 17 11 17.4477 11 18C11 18.5523 10.5523 19 10 19H5C4.44772 19 4 18.5523 4 18ZM19 15.5C19 16.1024 18.8473 16.6698 18.5791 17.1649L19.7071 18.2929C20.0976 18.6834 20.0976 19.3166 19.7071 19.7071C19.3166 20.0976 18.6834 20.0976 18.2929 19.7071L17.1649 18.5791C16.6698 18.8473 16.1024 19 15.5 19C13.567 19 12 17.433 12 15.5C12 13.567 13.567 12 15.5 12C17.433 12 19 13.567 19 15.5Z" fill="currentColor"/>
</svg>

<svg width="24" height="24" fill="none" xmlns="http://www.w3.org/2000/svg"><path fill-rule="evenodd" clip-rule="evenodd" d="M4 6a1 1 0 011-1h14a1 1 0 110 2H5a1 1 0 01-1-1zm0 4a1 1 0 011-1h14a1 1 0 110 2H5a1 1 0 01-1-1zm0 4a1 1 0 011-1h5a1 1 0 110 2H5a1 1 0 01-1-1zm0 4a1 1 0 011-1h5a1 1 0 110 2H5a1 1 0 01-1-1zm15-2.5c0 .602-.153 1.17-.42 1.665l1.127 1.128a1 1 0 01-1.414 1.414l-1.128-1.128A3.5 3.5 0 1119 15.5z" fill="currentColor"/></svg>
